X:0855
T:My Nannie, O,
C:New Set, by T. Ebdon
M:2/4
L:1/8
Q:1/4=120
I: ||
Z:Jack Campin * www.campin.me.uk * 2009
K:D
A/|d>e``````````f>d        |dB``````B(c/d/)| A>B``````````A(G/F/)    |GEE(d/e/)|
   f>e         (d/c/)(B/A/)|B(c/d/) A(G/F/)| GB```````````ge         |fdd>A    |
  (d/c/)(d/e/) (d/c/)(B/A/)|BG``````GB     |(e/d/)(e/f/) (e/d/)(c/B/)|cAA(d/e/)|
   f>e         (d/c/)(B/A/)|B(c/d/) A(G/F/)| GB```````````ge         |fddd     |
   BG```````````Ge         |cA``````A(e/f/)|f>e          (d/c/)(B/A/)|\
   B(c/d/)      A(G/F/)    |GB``````ge     |fd````````````d3/       |]
<end>
<start>
